src/Static/Positions/ks-position-28.svg

<?xml version="1.0" encoding="UTF-8"?>
<svg width="263px" height="172px" viewBox="0 0 263 172" version="1.1" xmlns="http://www.w3.org/2000/svg" xmlns:xlink="http://www.w3.org/1999/xlink">
    <title>sex-etsy-28</title>
    <defs>
        <path d="M121.5296,21.4027 L126.5357,42.3367 C129.3492,43.8456 132.5275,44.7807 135.9258,44.9669 C148.3349,45.6466 158.943,36.1393 159.6227,23.7312 C160.3023,11.323 150.796,0.714 138.3869,0.0343 C128.6035,-0.5016 119.9418,5.2988 116.3809,13.8586 C118.895,15.6031 120.7728,18.2387 121.5296,21.4027 Z" id="path-1"></path>
        <filter x="-20.4%" y="-14.4%" width="140.1%" height="137.8%" filterUnits="objectBoundingBox" id="filter-2">
            <feMorphology radius="1.5" operator="dilate" in="SourceAlpha" result="shadowSpreadOuter1"></feMorphology>
            <feOffset dx="0" dy="2" in="shadowSpreadOuter1" result="shadowOffsetOuter1"></feOffset>
            <feGaussianBlur stdDeviation="2" in="shadowOffsetOuter1" result="shadowBlurOuter1"></feGaussianBlur>
            <feComposite in="shadowBlurOuter1" in2="SourceAlpha" operator="out" result="shadowBlurOuter1"></feComposite>
            <feColorMatrix values="0 0 0 0 0   0 0 0 0 0   0 0 0 0 0  0 0 0 1 0" type="matrix" in="shadowBlurOuter1"></feColorMatrix>
        </filter>
        <path d="M158.7875,126.4632 L158.789,126.4628 C158.789,126.4628 158.214,126.0442 157.2617,125.3656 C155.1365,123.7748 153.4559,122.3043 151.5714,121.4122 C147.265,118.4983 142.0666,115.1755 139.047,113.943 C139.1192,113.6979 139.1444,113.4354 139.0999,113.1664 C138.9421,112.2128 138.0412,111.5678 137.0876,111.7257 C136.1566,111.8798 135.5253,112.7429 135.6426,113.6711 C130.6818,114.7341 124.8548,119.1854 126.3715,125.0693 C119.5327,126.0438 113.6104,126.2142 108.491,125.9652 L115.7588,115.5377 L130.4201,94.5024 L128.2991,95.523 C126.9134,96.1895 125.3704,96.5416 123.8362,96.5416 C120.9993,96.5416 118.2591,95.3551 116.3196,93.2862 L110.2114,86.7708 L97.3448,105.231 L85.6494,122.0108 L95.2304,135.4912 C97.2289,138.3033 98.1458,141.6362 97.9468,144.9415 L122.0471,144.9415 L149.3713,130.9732 C150.6086,130.3414 151.9914,130.0074 153.3723,130.0074 C156.6965,130.0074 159.7004,131.8453 161.2131,134.8033 C163.4221,139.1241 161.7033,144.4356 157.383,146.6441 L144.3759,153.2933 C148.4814,154.4152 152.0722,155.2993 156.5524,154.335 C170.229,151.3932 173.9394,140.4541 169.903,131.3256 C164.8342,130.1186 161.4369,128.2815 158.7875,126.4632 Z" id="path-3"></path>
        <filter x="-10.3%" y="-10.9%" width="120.2%" height="126.3%" filterUnits="objectBoundingBox" id="filter-4">
            <feMorphology radius="1.5" operator="dilate" in="SourceAlpha" result="shadowSpreadOuter1"></feMorphology>
            <feOffset dx="0" dy="2" in="shadowSpreadOuter1" result="shadowOffsetOuter1"></feOffset>
            <feGaussianBlur stdDeviation="2" in="shadowOffsetOuter1" result="shadowBlurOuter1"></feGaussianBlur>
            <feComposite in="shadowBlurOuter1" in2="SourceAlpha" operator="out" result="shadowBlurOuter1"></feComposite>
            <feColorMatrix values="0 0 0 0 0   0 0 0 0 0   0 0 0 0 0  0 0 0 1 0" type="matrix" in="shadowBlurOuter1"></feColorMatrix>
        </filter>
        <path d="M126.178,73.6825 L131.1,71.3142 L119.2923,21.9374 C117.9437,16.2973 112.2796,12.8197 106.638,14.1674 C100.9984,15.516 97.5198,21.1816 98.8685,26.8212 L104.5781,50.6976 C104.754,50.8605 104.9322,51.0208 105.097,51.1967 L126.178,73.6825 Z" id="path-5"></path>
        <filter x="-26.1%" y="-10.9%" width="153.0%" height="129.0%" filterUnits="objectBoundingBox" id="filter-6">
            <feMorphology radius="1.5" operator="dilate" in="SourceAlpha" result="shadowSpreadOuter1"></feMorphology>
            <feOffset dx="0" dy="2" in="shadowSpreadOuter1" result="shadowOffsetOuter1"></feOffset>
            <feGaussianBlur stdDeviation="2" in="shadowOffsetOuter1" result="shadowBlurOuter1"></feGaussianBlur>
            <feComposite in="shadowBlurOuter1" in2="SourceAlpha" operator="out" result="shadowBlurOuter1"></feComposite>
            <feColorMatrix values="0 0 0 0 0   0 0 0 0 0   0 0 0 0 0  0 0 0 1 0" type="matrix" in="shadowBlurOuter1"></feColorMatrix>
        </filter>
        <path d="M12.5,131.5653 C5.5967,131.5653 0,137.162 0,144.0653 C0,150.9686 5.5967,156.5653 12.5,156.5653 L71.6738,156.5653 C71.3718,155.6775 71.2005,154.7299 71.2005,153.7411 C71.2005,148.8886 75.1478,144.9413 80.0003,144.9413 L95.6342,144.9413 C95.8334,142.1023 95.0632,139.226 93.3555,136.8236 L77.3625,114.3215 L74.9766,110.9645 C88.2487,100.3549 96.1332,91.7185 103.3783,79.4818 L90.0696,65.286 C88.1878,63.2787 87.1995,60.659 87.2883,57.909 C87.3771,55.159 88.5315,52.6082 90.5383,50.7269 C92.4553,48.93 94.9563,47.9413 97.5822,47.9413 C99.0354,47.9413 100.461,48.2569 101.7684,48.8386 L98.7852,36.3641 C91.8139,35.5116 83.6341,40.7276 79.5337,48.1607 C71.5801,60.001 60.8317,77.6379 47.0519,88.1724 C45.5853,89.4769 44.3764,90.6657 43.3849,91.7691 C42.8379,92.3193 42.3525,92.9114 41.9263,93.538 C40.3252,95.7077 39.7077,97.5317 39.8325,99.2483 C39.5209,102.1743 40.2223,105.2199 42.0613,107.807 L51.7932,121.4999 L58.947,131.5653 L12.5,131.5653 Z" id="path-7"></path>
        <filter x="-8.2%" y="-5.4%" width="116.8%" height="114.1%" filterUnits="objectBoundingBox" id="filter-8">
            <feMorphology radius="1.5" operator="dilate" in="SourceAlpha" result="shadowSpreadOuter1"></feMorphology>
            <feOffset dx="0" dy="2" in="shadowSpreadOuter1" result="shadowOffsetOuter1"></feOffset>
            <feGaussianBlur stdDeviation="2" in="shadowOffsetOuter1" result="shadowBlurOuter1"></feGaussianBlur>
            <feComposite in="shadowBlurOuter1" in2="SourceAlpha" operator="out" result="shadowBlurOuter1"></feComposite>
            <feColorMatrix values="0 0 0 0 0   0 0 0 0 0   0 0 0 0 0  0 0 0 1 0" type="matrix" in="shadowBlurOuter1"></feColorMatrix>
        </filter>
        <path d="M159.1653,135.85 C157.5305,132.6527 153.6155,131.3876 150.4182,133.0209 L122.6008,147.2411 L80.0003,147.2411 C76.4105,147.2411 73.5003,150.1513 73.5003,153.7411 C73.5003,157.3309 76.4105,160.2411 80.0003,160.2411 L124.1663,160.2411 C125.1946,160.2411 126.2093,159.997 127.1253,159.5287 L156.3362,144.5961 C159.5325,142.9623 160.7991,139.0463 159.1653,135.85 Z" id="path-9"></path>
        <filter x="-9.8%" y="-23.3%" width="119.7%" height="160.9%" filterUnits="objectBoundingBox" id="filter-10">
            <feMorphology radius="1.5" operator="dilate" in="SourceAlpha" result="shadowSpreadOuter1"></feMorphology>
            <feOffset dx="0" dy="2" in="shadowSpreadOuter1" result="shadowOffsetOuter1"></feOffset>
            <feGaussianBlur stdDeviation="2" in="shadowOffsetOuter1" result="shadowBlurOuter1"></feGaussianBlur>
            <feComposite in="shadowBlurOuter1" in2="SourceAlpha" operator="out" result="shadowBlurOuter1"></feComposite>
            <feColorMatrix values="0 0 0 0 0   0 0 0 0 0   0 0 0 0 0  0 0 0 1 0" type="matrix" in="shadowBlurOuter1"></feColorMatrix>
        </filter>
        <path d="M125.6546,76.4867 L103.4192,52.7694 C100.3987,49.5467 95.3362,49.3827 92.1116,52.4047 C88.888,55.4267 88.7249,60.4892 91.7473,63.7128 L117.9973,91.7128 C119.5461,93.3647 121.6731,94.2416 123.8362,94.2416 C125.01,94.2416 126.1946,93.9828 127.302,93.4501 L167.135,74.2836 C171.1164,72.3676 172.7913,67.5873 170.8752,63.6059 C168.9592,59.6254 164.1789,57.9496 160.1975,59.8657 L125.6546,76.4867 Z" id="path-11"></path>
        <filter x="-10.4%" y="-14.8%" width="120.7%" height="138.6%" filterUnits="objectBoundingBox" id="filter-12">
            <feMorphology radius="1.5" operator="dilate" in="SourceAlpha" result="shadowSpreadOuter1"></feMorphology>
            <feOffset dx="0" dy="2" in="shadowSpreadOuter1" result="shadowOffsetOuter1"></feOffset>
            <feGaussianBlur stdDeviation="2" in="shadowOffsetOuter1" result="shadowBlurOuter1"></feGaussianBlur>
            <feComposite in="shadowBlurOuter1" in2="SourceAlpha" operator="out" result="shadowBlurOuter1"></feComposite>
            <feColorMatrix values="0 0 0 0 0   0 0 0 0 0   0 0 0 0 0  0 0 0 1 0" type="matrix" in="shadowBlurOuter1"></feColorMatrix>
        </filter>
        <path d="M237.3938,137.3923 C229.6915,136.7317 222.3349,143.4503 215.9664,147.8049 C215.5219,148.53 215.0373,149.2395 214.5059,149.9277 C211.5141,153.8024 207.554,156.4981 203.2257,157.9409 C209.1883,161.6852 217.645,163.1389 229.0175,153.5234 C241.8246,142.6949 247.4477,145.4262 250.1385,149.0861 C252.8292,152.746 252.6035,138.6969 237.3938,137.3923 Z" id="path-13"></path>
        <filter x="-21.6%" y="-27.7%" width="139.2%" height="172.5%" filterUnits="objectBoundingBox" id="filter-14">
            <feMorphology radius="1.5" operator="dilate" in="SourceAlpha" result="shadowSpreadOuter1"></feMorphology>
            <feOffset dx="0" dy="2" in="shadowSpreadOuter1" result="shadowOffsetOuter1"></feOffset>
            <feGaussianBlur stdDeviation="2" in="shadowOffsetOuter1" result="shadowBlurOuter1"></feGaussianBlur>
            <feComposite in="shadowBlurOuter1" in2="SourceAlpha" operator="out" result="shadowBlurOuter1"></feComposite>
            <feColorMatrix values="0 0 0 0 0   0 0 0 0 0   0 0 0 0 0  0 0 0 1 0" type="matrix" in="shadowBlurOuter1"></feColorMatrix>
        </filter>
        <circle id="path-15" cx="195.671009" cy="135.3837" r="21.5001206"></circle>
        <filter x="-19.8%" y="-15.1%" width="139.5%" height="139.5%" filterUnits="objectBoundingBox" id="filter-16">
            <feMorphology radius="1.5" operator="dilate" in="SourceAlpha" result="shadowSpreadOuter1"></feMorphology>
            <feOffset dx="0" dy="2" in="shadowSpreadOuter1" result="shadowOffsetOuter1"></feOffset>
            <feGaussianBlur stdDeviation="2" in="shadowOffsetOuter1" result="shadowBlurOuter1"></feGaussianBlur>
            <feComposite in="shadowBlurOuter1" in2="SourceAlpha" operator="out" result="shadowBlurOuter1"></feComposite>
            <feColorMatrix values="0 0 0 0 0   0 0 0 0 0   0 0 0 0 0  0 0 0 1 0" type="matrix" in="shadowBlurOuter1"></feColorMatrix>
        </filter>
    </defs>
    <g id="Page-2" stroke="none" stroke-width="1" fill="none" fill-rule="evenodd">
        <g id="sex-etsy-28" transform="translate(6.000000, 4.000000)" fill-rule="nonzero">
            <g id="Path">
                <use fill="black" fill-opacity="1" filter="url(#filter-2)" xlink:href="#path-1"></use>
                <use stroke="#1A1A1D" stroke-width="3" fill="#4E4E50" xlink:href="#path-1"></use>
            </g>
            <g id="Path">
                <use fill="black" fill-opacity="1" filter="url(#filter-4)" xlink:href="#path-3"></use>
                <use stroke="#1A1A1D" stroke-width="3" fill="#6F2232" xlink:href="#path-3"></use>
            </g>
            <g id="Path">
                <use fill="black" fill-opacity="1" filter="url(#filter-6)" xlink:href="#path-5"></use>
                <use stroke="#1A1A1D" stroke-width="3" fill="#6F2232" xlink:href="#path-5"></use>
            </g>
            <g id="Path">
                <use fill="black" fill-opacity="1" filter="url(#filter-8)" xlink:href="#path-7"></use>
                <use stroke="#1A1A1D" stroke-width="3" fill="#4E4E50" xlink:href="#path-7"></use>
            </g>
            <g id="Path">
                <use fill="black" fill-opacity="1" filter="url(#filter-10)" xlink:href="#path-9"></use>
                <use stroke="#1A1A1D" stroke-width="3" fill="#6F2232" xlink:href="#path-9"></use>
            </g>
            <g id="Path">
                <use fill="black" fill-opacity="1" filter="url(#filter-12)" xlink:href="#path-11"></use>
                <use stroke="#1A1A1D" stroke-width="3" fill="#4E4E50" xlink:href="#path-11"></use>
            </g>
            <g id="Path">
                <use fill="black" fill-opacity="1" filter="url(#filter-14)" xlink:href="#path-13"></use>
                <use stroke="#1A1A1D" stroke-width="3" fill="#6F2232" xlink:href="#path-13"></use>
            </g>
            <g id="Oval" transform="translate(195.671009, 135.383700) rotate(-77.930454) translate(-195.671009, -135.383700) ">
                <use fill="black" fill-opacity="1" filter="url(#filter-16)" xlink:href="#path-15"></use>
                <use stroke="#1A1A1D" stroke-width="3" fill="#6F2232" xlink:href="#path-15"></use>
            </g>
        </g>
    </g>
</svg>

<svg xmlns="http://www.w3.org/2000/svg" width="263" height="172" xmlns:xlink="http://www.w3.org/1999/xlink"><title>sex-etsy-28</title><defs><path id="b" d="M121.53 21.4l5 20.94c2.82 1.5 6 2.44 9.4 2.63 12.4.68 23-8.83 23.7-21.24.67-12.4-8.83-23.02-21.24-23.7-9.8-.53-18.46 5.27-22.02 13.83 2.52 1.74 4.4 4.38 5.15 7.54z"/><filter id="a" width="140.1%" height="137.8%" x="-20.4%" y="-14.4%" filterUnits="objectBoundingBox"><feMorphology radius="1.5" operator="dilate" in="SourceAlpha" result="shadowSpreadOuter1"/><feOffset dy="2" in="shadowSpreadOuter1" result="shadowOffsetOuter1"/><feGaussianBlur stdDeviation="2" in="shadowOffsetOuter1" result="shadowBlurOuter1"/><feComposite in="shadowBlurOuter1" in2="SourceAlpha" operator="out" result="shadowBlurOuter1"/><feColorMatrix values="0 0 0 0 0 0 0 0 0 0 0 0 0 0 0 0 0 0 1 0" in="shadowBlurOuter1"/></filter><path id="d" d="M158.8 126.46s-.6-.42-1.54-1.1c-2.12-1.6-3.8-3.06-5.7-3.95-4.3-2.9-9.5-6.22-12.5-7.46.06-.24.08-.5.04-.77-.16-.96-1.06-1.6-2-1.44-.94.15-1.57 1-1.46 1.94-4.96 1.06-10.8 5.52-9.27 11.4-6.84.97-12.76 1.14-17.88.9l7.26-10.43 14.66-21.04-2.12 1.02c-1.4.67-2.93 1.02-4.46 1.02-2.84 0-5.58-1.18-7.52-3.25l-6.1-6.53-12.88 18.46L85.64 122l9.6 13.5c2 2.8 2.9 6.14 2.7 9.44h24.1l27.33-13.97c1.24-.63 2.62-.96 4-.96 3.33 0 6.33 1.85 7.84 4.8 2.22 4.32.5 9.64-3.82 11.84l-13 6.65c4.1 1.12 7.7 2 12.17 1.03 13.68-2.94 17.4-13.88 13.35-23-5.07-1.2-8.46-3.05-11.1-4.87z"/><filter id="c" width="120.2%" height="126.3%" x="-10.3%" y="-10.9%" filterUnits="objectBoundingBox"><feMorphology radius="1.5" operator="dilate" in="SourceAlpha" result="shadowSpreadOuter1"/><feOffset dy="2" in="shadowSpreadOuter1" result="shadowOffsetOuter1"/><feGaussianBlur stdDeviation="2" in="shadowOffsetOuter1" result="shadowBlurOuter1"/><feComposite in="shadowBlurOuter1" in2="SourceAlpha" operator="out" result="shadowBlurOuter1"/><feColorMatrix values="0 0 0 0 0 0 0 0 0 0 0 0 0 0 0 0 0 0 1 0" in="shadowBlurOuter1"/></filter><path id="f" d="M126.18 73.68l4.92-2.37-11.8-49.36c-1.36-5.64-7.02-9.12-12.66-7.77-5.64 1.35-9.12 7-7.77 12.65l5.7 23.88c.18.16.36.32.53.5l21.08 22.48z"/><filter id="e" width="153%" height="129%" x="-26.1%" y="-10.9%" filterUnits="objectBoundingBox"><feMorphology radius="1.5" operator="dilate" in="SourceAlpha" result="shadowSpreadOuter1"/><feOffset dy="2" in="shadowSpreadOuter1" result="shadowOffsetOuter1"/><feGaussianBlur stdDeviation="2" in="shadowOffsetOuter1" result="shadowBlurOuter1"/><feComposite in="shadowBlurOuter1" in2="SourceAlpha" operator="out" result="shadowBlurOuter1"/><feColorMatrix values="0 0 0 0 0 0 0 0 0 0 0 0 0 0 0 0 0 0 1 0" in="shadowBlurOuter1"/></filter><path id="h" d="M12.5 131.57c-6.9 0-12.5 5.6-12.5 12.5s5.6 12.5 12.5 12.5h59.17c-.3-.9-.47-1.84-.47-2.83 0-4.85 3.95-8.8 8.8-8.8h15.63c.2-2.84-.57-5.7-2.27-8.12l-16-22.5-2.38-3.36c13.27-10.6 21.15-19.24 28.4-31.48l-13.3-14.2c-1.9-2-2.88-4.62-2.8-7.37.1-2.74 1.25-5.3 3.26-7.17 1.92-1.8 4.42-2.8 7.04-2.8 1.46 0 2.88.33 4.2.9l-3-12.47c-6.97-.85-15.15 4.37-19.25 11.8-7.95 11.84-18.7 29.48-32.48 40-1.46 1.32-2.67 2.5-3.67 3.6-.54.56-1.03 1.15-1.45 1.78-1.6 2.17-2.22 4-2.1 5.7-.3 2.93.4 5.98 2.23 8.57l9.73 13.7 7.15 10.07H12.5z"/><filter id="g" width="116.8%" height="114.1%" x="-8.2%" y="-5.4%" filterUnits="objectBoundingBox"><feMorphology radius="1.5" operator="dilate" in="SourceAlpha" result="shadowSpreadOuter1"/><feOffset dy="2" in="shadowSpreadOuter1" result="shadowOffsetOuter1"/><feGaussianBlur stdDeviation="2" in="shadowOffsetOuter1" result="shadowBlurOuter1"/><feComposite in="shadowBlurOuter1" in2="SourceAlpha" operator="out" result="shadowBlurOuter1"/><feColorMatrix values="0 0 0 0 0 0 0 0 0 0 0 0 0 0 0 0 0 0 1 0" in="shadowBlurOuter1"/></filter><path id="j" d="M159.17 135.85c-1.64-3.2-5.55-4.46-8.75-2.83l-27.82 14.22H80c-3.6 0-6.5 2.9-6.5 6.5s2.9 6.5 6.5 6.5h44.17c1.02 0 2.04-.24 2.96-.7l29.2-14.94c3.2-1.64 4.47-5.55 2.84-8.75z"/><filter id="i" width="119.7%" height="160.9%" x="-9.8%" y="-23.3%" filterUnits="objectBoundingBox"><feMorphology radius="1.5" operator="dilate" in="SourceAlpha" result="shadowSpreadOuter1"/><feOffset dy="2" in="shadowSpreadOuter1" result="shadowOffsetOuter1"/><feGaussianBlur stdDeviation="2" in="shadowOffsetOuter1" result="shadowBlurOuter1"/><feComposite in="shadowBlurOuter1" in2="SourceAlpha" operator="out" result="shadowBlurOuter1"/><feColorMatrix values="0 0 0 0 0 0 0 0 0 0 0 0 0 0 0 0 0 0 1 0" in="shadowBlurOuter1"/></filter><path id="l" d="M125.65 76.5l-22.23-23.73c-3.02-3.22-8.08-3.4-11.3-.37-3.23 3.03-3.4 8.1-.37 11.3l26.25 28c1.55 1.66 3.67 2.54 5.84 2.54 1.17 0 2.35-.26 3.46-.8l39.83-19.16c4-1.9 5.66-6.7 3.75-10.67-1.92-3.97-6.7-5.65-10.68-3.73L125.65 76.5z"/><filter id="k" width="120.7%" height="138.6%" x="-10.4%" y="-14.8%" filterUnits="objectBoundingBox"><feMorphology radius="1.5" operator="dilate" in="SourceAlpha" result="shadowSpreadOuter1"/><feOffset dy="2" in="shadowSpreadOuter1" result="shadowOffsetOuter1"/><feGaussianBlur stdDeviation="2" in="shadowOffsetOuter1" result="shadowBlurOuter1"/><feComposite in="shadowBlurOuter1" in2="SourceAlpha" operator="out" result="shadowBlurOuter1"/><feColorMatrix values="0 0 0 0 0 0 0 0 0 0 0 0 0 0 0 0 0 0 1 0" in="shadowBlurOuter1"/></filter><path id="n" d="M237.4 137.4c-7.7-.67-15.07 6.05-21.43 10.4-.45.73-.93 1.44-1.46 2.13-3 3.87-6.95 6.57-11.27 8 5.96 3.76 14.42 5.2 25.8-4.4 12.8-10.84 18.42-8.1 21.1-4.44 2.7 3.65 2.47-10.4-12.74-11.7z"/><filter id="m" width="139.2%" height="172.5%" x="-21.6%" y="-27.7%" filterUnits="objectBoundingBox"><feMorphology radius="1.5" operator="dilate" in="SourceAlpha" result="shadowSpreadOuter1"/><feOffset dy="2" in="shadowSpreadOuter1" result="shadowOffsetOuter1"/><feGaussianBlur stdDeviation="2" in="shadowOffsetOuter1" result="shadowBlurOuter1"/><feComposite in="shadowBlurOuter1" in2="SourceAlpha" operator="out" result="shadowBlurOuter1"/><feColorMatrix values="0 0 0 0 0 0 0 0 0 0 0 0 0 0 0 0 0 0 1 0" in="shadowBlurOuter1"/></filter><circle id="p" cx="195.671" cy="135.384" r="21.5"/><filter id="o" width="139.5%" height="139.5%" x="-19.8%" y="-15.1%" filterUnits="objectBoundingBox"><feMorphology radius="1.5" operator="dilate" in="SourceAlpha" result="shadowSpreadOuter1"/><feOffset dy="2" in="shadowSpreadOuter1" result="shadowOffsetOuter1"/><feGaussianBlur stdDeviation="2" in="shadowOffsetOuter1" result="shadowBlurOuter1"/><feComposite in="shadowBlurOuter1" in2="SourceAlpha" operator="out" result="shadowBlurOuter1"/><feColorMatrix values="0 0 0 0 0 0 0 0 0 0 0 0 0 0 0 0 0 0 1 0" in="shadowBlurOuter1"/></filter></defs><g fill="none"><g fill-rule="nonzero"><g id="Path" transform="translate(6 4)"><use fill="#000" filter="url(#a)" xlink:href="#b"/><use fill="#4E4E50" stroke="#1A1A1D" stroke-width="3" xlink:href="#b"/></g><g id="Path" transform="translate(6 4)"><use fill="#000" filter="url(#c)" xlink:href="#d"/><use fill="#6F2232" stroke="#1A1A1D" stroke-width="3" xlink:href="#d"/></g><g id="Path" transform="translate(6 4)"><use fill="#000" filter="url(#e)" xlink:href="#f"/><use fill="#6F2232" stroke="#1A1A1D" stroke-width="3" xlink:href="#f"/></g><g id="Path" transform="translate(6 4)"><use fill="#000" filter="url(#g)" xlink:href="#h"/><use fill="#4E4E50" stroke="#1A1A1D" stroke-width="3" xlink:href="#h"/></g><g id="Path" transform="translate(6 4)"><use fill="#000" filter="url(#i)" xlink:href="#j"/><use fill="#6F2232" stroke="#1A1A1D" stroke-width="3" xlink:href="#j"/></g><g id="Path" transform="translate(6 4)"><use fill="#000" filter="url(#k)" xlink:href="#l"/><use fill="#4E4E50" stroke="#1A1A1D" stroke-width="3" xlink:href="#l"/></g><g transform="translate(6 4)"><use fill="#000" filter="url(#m)" xlink:href="#n"/><use fill="#6F2232" stroke="#1A1A1D" stroke-width="3" xlink:href="#n"/></g><g transform="translate(6 4) rotate(-77.93 195.671 135.384)"><use fill="#000" filter="url(#o)" xlink:href="#p"/><use fill="#6F2232" stroke="#1A1A1D" stroke-width="3" xlink:href="#p"/></g></g></g></svg>
